X:141 
T:McFadden's Reel 1 
B:CRE3.100 (RÃÂÃÂÃÂÃÂ­l Mhic PhÃÂÃÂÃÂÃÂ¡idÃÂÃÂÃÂÃÂ­n (a))
F:file ID: cre.3/141mcfad1
R:reel
Q:180
M:C
K:D
L:1/8
DBed B3c|dBB2 dBAF|DBed B3e|fded dBAF|
EBB2 dBB2|EBB2 BAFB|(3ABA FB ABde|fded dBAg||
faa2 fdde|fdad BdAg|faa2 bgaf|egfe dBAg|
faa2 fdde|fdad BdAg|faaf a3f|egfe dBAF||

%%%

